X: 4201
T: PADDY CAREY
R: Jig
%R: jig
B: James Kerr "Merry Melodies" v.4 p.23 #201
Z: 2016 John Chambers <jc:trillian.mit.edu>
M: 6/8
L: 1/8
K: D
|:\
vA2vd dcd | f2d dcd | B2e e2f | g2e c2A |\
A2d dcd | f2d dcd | ecA ABc | def e2d :|\
|:\
d2f g2b | a2b afd |
d2f g2b | afd e3 |\
d2f g2b | a2b afd | dcB ABc | def e2d :|\
|:\
g2e ede | f2d dcd | B2e e2f | g2e c2A |\
g2e ede |
f2d dcd | ecA ABc | def e2d :|\
|:\
ddd d2b | a2b afd | ddd d2b | afd e3 |\
ddd d2b | a2b afd | dcB ABc | def e2d :|

%%sep 1 1 500
%%sep 1 1 500

